X: 24370
T: Love At The Window
R: jig
M: 6/8
K: Gmajor
B,|DED DB,D|E2GD2c|BAG GAB|A2GE2c|
BAB dcB|BAG A2B|DED DB,D|E2F G2||
B|dBG dBG|ecA ABc|dBG GAB|A2F DBc|
dBG ecA|dBG ABc|BAG EDE|G3G2||
B|Bee e^de|e^de gfe|Bee efg|fdf agf|
bag agf|gfe fe^d|ecB AGF|EGF E2||

